X:1
T:We Are Little Soldiers
T:We Are Little Soldiers
T:Charles Hutchinson Gabriel
T:Cora E. Howes, 1895
T:Public Domain Courtesy of the Cyber Hymnal™
C:Charles Hutchinson Gabriel
Z:Public Domain
Z:Courtesy of the Cyber Hymnal™
%%score 1 2
L:1/8
Q:1/4=110
M:6/8
K:G
V:1 treble 
V:2 bass 
V:1
 B2 B D2 D | B3 B3 | A2 A A2 A | E3- E2 z | F2 F D2 F | A3 c2 c | B2 B A2 G | (A3 d2) z || %8
w: 1.~We are lit- tle|sol- diers,|Fight- ing for our|king; *|Don’t you love to|hear us, As|we so glad- ly|sing? *|
w: 2.~Sa- tan will en-|trap us,|If we don’t look|out; *|When we see him|com- ing, We|raise our ar- my|shout. *|
w: 3.~We are lit- tle|sol- diers,|But we know the|right; *|When the foe is|near us, We|pray, and sing with|might. *|
"^Refrain" [DB]3 [B,D]3 | [DB]3 [Ec]2 [DB] | [DB] [DB]2 [CA] [CA]2 | [CD] [CD]4 z | [CA]3 [CD]3 | %13
w: |||||
w: Tramp, tramp,|tramp, We are|com- ing, com- ing,|com- ing!|Tramp, tramp,|
w: |||||
 [CA]3 [DB] [DB]2 | [CA]2 [CA] [B,G]2 [A,F] | [B,D]3- [B,D]2 z | [DB]3 [B,D]3 | [DB]3 [=Fd]2 [Fd] | %18
w: |||||
w: tramp, Com- ing|with an ar- my|strong; *|Tramp, tramp,|tramp, We are|
w: |||||
 [Ed] [Ed]2 [Ec] [Ec]2 | [EB] [EB]2 [EA] [EA]2 | [DG]2 [DF] [DG]2 [DA] | [GB]3 [DA]3 | [DG]6- | %23
w: |||||
w: coming, coming, com- ing,|com- ing, Fight- ing|ev- ery- thing that’s|wrong. *||
w: |||||
 [DG]3- [DG]2 z |] %24
w: |
w: |
w: |
V:2
 [A,,G,]2 z [D,G,B,]2 z | [G,,G,]2 z [D,G,B,]2 z | D,2 z [E,A,C]2 z | C,2 z [E,A,C]2 z | %4
w: ~ ~|~ ~|~ ~|~ ~|
 D,,2 z [D,F,C]2 z | D,,2 z [D,F,C]2 z | [G,B,]2 z [E,G,A,]2 z | [D,F,A,]3- [D,F,A,]2 z || %8
w: ~ ~|~ ~|~ ~|~ *|
 [G,,G,]3 [G,,G,]3 | [G,,G,]3 [G,,G,]2 [G,,G,] | [D,F,] [D,F,]2 [D,F,] [D,F,]2 | [D,F,] [D,F,]4 z | %12
w: ~ ~|~ ~ ~|~ ~ ~ ~|~ ~|
 [D,F,]3 [D,F,]3 | [D,F,]3 [D,F,] [D,F,]2 | [G,,G,]2 [G,,G,] [G,,G,]2 [G,,G,] | %15
w: ~ ~|~ ~ ~|~ ~ ~ ~|
 [G,,G,]2 G, [D,G,][B,,G,] z | [G,,G,]3 [G,,G,]3 | [G,,G,]3 [B,,G,]2 [B,,G,] | %18
w: ~ we’re com- ing!|~ ~|~ ~ ~|
 [C,G,] [C,G,]2 [C,G,] [C,G,]2 | [C,G,] [C,G,]2 [C,C] [C,C]2 | [D,B,]2 [D,A,] [D,B,]2 [D,C] | %21
w: ~ ~ ~ ~|~ ~ ~ ~|~ ~ ~ ~|
 [D,D]3 [D,C]3 | [G,B,]2 [E,B,] [D,B,]2 [B,,B,] | [G,,B,]3- [G,,B,]2 z |] %24
w: ~ Yes,|ev- ery- thing that’s|wrong! *|

